X: 8777
T: Cuckoo's Nest
R: polka
M: 2/4
K: Adorian
|:A>B cd|ea ef|gg gB/c/|d/e/d/B/ GB|
A>B cd|ea ef|gB dc/B/|1 A2 AE:|2 A2 A^g||
|:aa ab|ae ef|gg gB/c/|d/e/d/B/ GB|
A>B cd|ea ef|gB dc/B/|1 A2 A^g:|2 A2 AE||

